X: 46
T: Praeludia organi op. 5 – Moderato
C: Franciszek Walczyński
%%abc-version 2.0
%%abcx-abcm2ps-target-version 5.9.1 (29 Sep 2008)
%%abc-creator hum2abc beta
%%abcx-conversion-date 2021/10/04 07:38:40
%%abc-edited-by Andrzej Borzym
%%abc-edited-by Krzysztof Stępień
%%abcx-initial-encoding-date 2021-07-26
%%humdrum-veritas 1538055129
%%humdrum-veritas-data 770237085
%%linebreak <none>
%%barnumbers 0
L: 1/4
M: 3/4
N: Derived from pl-kozmzk--mzk-m-159--035_walczynski-franciszek--praeludia-organi-op-5-moderato.krn
Q: "35. Moderato."
%%staves {1 2}
V: 1 clef=treble
V: 2 clef=bass
K: Ab
[V:1] z3 & z3 | 
[V:2] A,,A,G, | 
[V:1] z3 & Ddc | 
[V:2] F,2E, | 
[V:1] z3 & B2A | 
[V:2] D,DC | 
[V:1] Ggf & G3- | 
[V:2] B,2=B, | 
[V:1] =e3 & GcB | 
[V:2] C3 | 
[V:1] fc_e & A=A2 | 
[V:2] DFF, | 
[V:1] d2=d & BFB | 
[V:2] B,2_A, | 
[V:1] eB_d & BG2 | 
[V:2] G,F,E, | 
[V:1] c3 & AG_G | 
[V:2] A,3 | 
[V:1] d2B & F3 | 
[V:2] =A,B,D, | 
[V:1] A3 & CD=D | 
[V:2] E,3- | 
[V:1] G3 & E3 | 
[V:2] E,E_D | 
[V:1] ABc & E3 | 
[V:2] CG,A, | 
[V:1] dFB & D3 | 
[V:2] B,D,2 | 
[V:1] ABG & CD2 | 
[V:2] E,3 | 
[V:1] A3- & C3 | 
[V:2] A,,A,_G, | 
[V:1] AdB & D3 | 
[V:2] F,2_F, | 
[V:1] ABG & CD2- | 
[V:2] E,3 | 
[V:1] A3- & DCB, | 
[V:2] A,,3- | 
[V:1] !fermata!A3 & C3 |]  
[V:2] !fermata!A,,3 |]  


